packages/kaspersky-hexa-ui-icons/src/iconsSVGs/28x20/FlagMa.svg

<svg xmlns="http://www.w3.org/2000/svg" width="28" height="20" fill="none" viewBox="0 0 28 20"><g clip-path="url(#a)"><rect width="28" height="20" fill="#fff" rx="2"/><mask id="b" width="28" height="20" x="0" y="0" maskUnits="userSpaceOnUse" style="mask-type:luminance"><rect width="28" height="20" fill="#fff" rx="2"/></mask><g mask="url(#b)"><path fill="#e33b44" d="M0 0h28v20H0z"/><mask id="c" fill="#fff"><path fill-rule="evenodd" d="m14 12.34-3.5267 2.5141 1.3012-4.131-3.4808-2.5772 4.3309-.039L14 4l1.3754 4.1069 4.3309.039-3.4808 2.5772 1.3012 4.131z" clip-rule="evenodd"/></mask><path stroke="#0a6135" stroke-width="3" d="m14 12.34-3.5267 2.5141 1.3012-4.131-3.4808-2.5772 4.3309-.039L14 4l1.3754 4.1069 4.3309.039-3.4808 2.5772 1.3012 4.131z" clip-rule="evenodd" mask="url(#c)"/></g></g><defs><clipPath id="a"><path fill="#fff" d="M0 0h28v20H0z"/></clipPath></defs></svg>

<svg width="28" height="20" viewBox="0 0 28 20" fill="none" xmlns="http://www.w3.org/2000/svg">
<g clip-path="url(#clip0_5138_1369)">
<rect width="28" height="20" rx="2" fill="white"/>
<mask id="mask0_5138_1369" style="mask-type:luminance" maskUnits="userSpaceOnUse" x="0" y="0" width="28" height="20">
<rect width="28" height="20" rx="2" fill="white"/>
</mask>
<g mask="url(#mask0_5138_1369)">
<rect width="28" height="20" fill="#E33B44"/>
<mask id="path-4-inside-1_5138_1369" fill="white">
<path fill-rule="evenodd" clip-rule="evenodd" d="M14 12.34L10.4733 14.8541L11.7745 10.7231L8.29366 8.1459L12.6246 8.1069L14 4L15.3754 8.1069L19.7063 8.1459L16.2255 10.7231L17.5267 14.8541L14 12.34Z"/>
</mask>
<path fill-rule="evenodd" clip-rule="evenodd" d="M14 12.34L10.4733 14.8541L11.7745 10.7231L8.29366 8.1459L12.6246 8.1069L14 4L15.3754 8.1069L19.7063 8.1459L16.2255 10.7231L17.5267 14.8541L14 12.34Z" stroke="#0A6135" stroke-width="2.66667" mask="url(#path-4-inside-1_5138_1369)"/>
</g>
</g>
<defs>
<clipPath id="clip0_5138_1369">
<rect width="28" height="20" fill="white"/>
</clipPath>
</defs>
</svg>
